src/assets/duotone/PathSquare.svg

<svg width="24" height="24" viewBox="0 0 24 24"  xmlns="http://www.w3.org/2000/svg">
<path opacity="0.4" d="M16.19 2H7.81C4.17 2 2 4.17 2 7.81V16.18C2 19.83 4.17 22 7.81 22H16.18C19.82 22 21.99 19.83 21.99 16.19V7.81C22 4.17 19.83 2 16.19 2Z" />
<path d="M16.6602 11.25L15.0402 12.27L11.7402 8.97998L12.7702 7.34998C13.2402 6.60998 14.2002 6.56998 14.9002 7.26998L16.7502 9.11998C17.4102 9.76998 17.3702 10.8 16.6602 11.25Z" />
<path opacity="0.6" d="M13.5801 16.6202L8.51007 17.2202C8.29007 17.2502 8.09007 17.2402 7.90007 17.1802C7.35007 17.0602 6.96007 16.6702 6.84007 16.1202C6.78007 15.9302 6.77007 15.7302 6.80007 15.5102L7.39007 10.4402C7.55007 9.17017 8.01007 8.76017 9.35007 8.84017L11.7401 8.98017L15.0401 12.2702L15.1801 14.6702C15.3101 16.0102 14.8501 16.4702 13.5801 16.6202Z" />
<path d="M9.87984 15.1999L7.89984 17.1799C7.34984 17.0599 6.95984 16.6699 6.83984 16.1199L8.80984 14.1399C9.10984 13.8499 9.57984 13.8499 9.87984 14.1399C10.1698 14.4299 10.1698 14.9099 9.87984 15.1999Z" />
</svg>

<?xml version="1.0" encoding="UTF-8"?>
<svg width="24" height="24" viewBox="0 0 24 24" xmlns="http://www.w3.org/2000/svg">
 <path d="M16.19 2H7.81C4.17 2 2 4.17 2 7.81V16.18C2 19.83 4.17 22 7.81 22H16.18C19.82 22 21.99 19.83 21.99 16.19V7.81C22 4.17 19.83 2 16.19 2Z" opacity=".4"/>
 <path d="m16.66 11.25-1.62 1.02-3.3-3.29 1.03-1.63c0.47-0.74 1.43-0.78 2.13-0.08l1.85 1.85c0.66 0.65 0.62 1.68-0.09 2.13z"/>
 <path d="m13.58 16.62-5.07 0.6c-0.22 0.03-0.42 0.02-0.61-0.04-0.55-0.12-0.94-0.51-1.06-1.06-0.06-0.19-0.07-0.39-0.04-0.61l0.59-5.07c0.16-1.27 0.62-1.68 1.96-1.6l2.39 0.14 3.3 3.29 0.14 2.4c0.13 1.34-0.33 1.8-1.6 1.95z" opacity=".6"/>
 <path d="m9.8798 15.2-1.98 1.98c-0.55-0.12-0.94-0.51-1.06-1.06l1.97-1.98c0.3-0.29 0.77-0.29 1.07 0 0.28996 0.29 0.28996 0.77 0 1.06z"/>
</svg>
